assets/gi/gi-abstract-050.svg

<svg xmlns="http://www.w3.org/2000/svg" width="100%" height="100%" viewBox="-35.84 -35.84 583.68 583.68"><path d="m21,21v135.125h135.125v-135.125h-135.125zm167.4375,0v135.125h135.125v-135.125h-135.125zm167.4375,0v135.125h135.125v-135.125h-135.125zm-334.875,167.4375v135.125h135.125v-135.125h-135.125zm167.4375,0v135.125h135.125v-135.125h-135.125zm167.4375,0v135.125h135.125v-135.125h-135.125zm-334.875,167.4375v135.125h135.125v-135.125h-135.125zm167.4375,0v135.125h135.125v-135.125h-135.125zm167.4375,0v135.125h135.125v-135.125h-135.125z"/></svg>

<svg xmlns="http://www.w3.org/2000/svg" width="100%" height="100%" viewBox="-35.84 -35.84 583.68 583.68"><path d="M21 21v135.125h135.125V21H21zm167.438 0v135.125h135.125V21H188.438zm167.437 0v135.125H491V21H355.875zM21 188.438v135.125h135.125V188.438H21zm167.438 0v135.125h135.125V188.438H188.438zm167.437 0v135.125H491V188.438H355.875zM21 355.875V491h135.125V355.875H21zm167.438 0V491h135.125V355.875H188.438zm167.437 0V491H491V355.875H355.875z"/></svg>
